!!!OTL: AFM WASSA BIN I GFOAHRN
!!!ARE: Europa, Mitteleuropa, Deutschland, Oesterreich
!!!SCT: E0656
!!!YEM: Copyright 1995, estate of Helmut Schaffrath.
**kern
*ICvox
*Ivox
*M3/4
*k[f#]
*G:
{4g
=1
4f#
8a
8cc
8ff#
8aa
=2
8bb
8gg
4.dd}
{8ee
=3
8dd
8cc
4cc
8cc
8f#
=4
4g
8b
8d}
{4g
=5
4f#
8a
8cc
8ff#
8aa
=6
8bb
8gg
4.dd}
{8ee
=7
8dd
8cc
4cc
8cc
8f#
=8
2g}
==
!!!AGN: Liebes - Lied
!!!ONB: ESAC (Essen Associative Code) Database: ERK2
!!!AMT: simple triple
!!!AIN: vox
!!!EED: Helmut Schaffrath
!!!EEV: 1.0
*-
